svg/fluentui-system-icons/ic_fluent_video_person_clock_24_regular.svg

<svg width="24" height="24" viewBox="0 0 24 24" fill="none" xmlns="http://www.w3.org/2000/svg">
<path d="M19.7454 3C20.988 3 21.9954 4.00736 21.9954 5.25V12.8051C21.551 12.3795 21.0463 12.0164 20.4954 11.7298V5.25C20.4954 4.83579 20.1596 4.5 19.7454 4.5H4.25C3.83579 4.5 3.5 4.83579 3.5 5.25V16.7546C3.5 17.1688 3.83579 17.5046 4.25 17.5046L6.999 17.504L7 14.75C7 13.8318 7.70711 13.0788 8.60647 13.0058L8.75 13H12.8096C12.3832 13.4443 12.0194 13.949 11.7322 14.5H8.75C8.63165 14.5 8.53251 14.5822 8.5066 14.6927L8.5 14.75L8.499 17.504H11C11.0003 18.0205 11.0609 18.5229 11.175 19.0046H4.25C3.00736 19.0046 2 17.9972 2 16.7546V5.25C2 4.00736 3.00736 3 4.25 3H19.7454ZM12 6.00046C13.6569 6.00046 15 7.34361 15 9.00046C15 10.6573 13.6569 12.0005 12 12.0005C10.3431 12.0005 9 10.6573 9 9.00046C9 7.34361 10.3431 6.00046 12 6.00046ZM12 7.50046C11.1716 7.50046 10.5 8.17203 10.5 9.00046C10.5 9.82889 11.1716 10.5005 12 10.5005C12.8284 10.5005 13.5 9.82889 13.5 9.00046C13.5 8.17203 12.8284 7.50046 12 7.50046ZM17.5 12C20.5376 12 23 14.4624 23 17.5C23 20.5376 20.5376 23 17.5 23C14.4624 23 12 20.5376 12 17.5C12 14.4624 14.4624 12 17.5 12ZM19.5 17.5001H17.5L17.5 14.9999C17.5 14.7238 17.2761 14.4999 17 14.4999C16.7239 14.4999 16.5 14.7238 16.5 14.9999L16.5 17.9985L16.5 18.0001C16.5 18.2762 16.7239 18.5001 17 18.5001H19.5C19.7761 18.5001 20 18.2762 20 18.0001C20 17.7239 19.7761 17.5001 19.5 17.5001Z" fill="#212121"/>
</svg>

<svg xmlns="http://www.w3.org/2000/svg" width="24" height="24"><path d="M19.745 3a2.25 2.25 0 0 1 2.25 2.25v7.555a6.52 6.52 0 0 0-1.5-1.075V5.25a.75.75 0 0 0-.75-.75H4.25a.75.75 0 0 0-.75.75v11.505c0 .414.336.75.75.75l2.749-.001L7 14.75a1.75 1.75 0 0 1 1.606-1.744L8.75 13h4.06a6.52 6.52 0 0 0-1.078 1.5H8.75a.25.25 0 0 0-.243.193l-.007.057-.001 2.754H11c0 .516.06 1.019.175 1.5H4.25A2.25 2.25 0 0 1 2 16.755V5.25A2.25 2.25 0 0 1 4.25 3h15.495ZM12 6a3 3 0 1 1 0 6 3 3 0 0 1 0-6Zm0 1.5a1.5 1.5 0 1 0 0 3 1.5 1.5 0 0 0 0-3Zm5.5 4.5a5.5 5.5 0 1 1 0 11 5.5 5.5 0 0 1 0-11Zm2 5.5h-2V15a.5.5 0 0 0-1 0v3a.5.5 0 0 0 .5.5h2.5a.5.5 0 0 0 0-1Z"/></svg>
